X: 1
T: Humours Of Derryloughan, The
M: 6/8
L: 1/8
R: jig
K: Dmix
|:A3 AGE|GED ~D3|c2A ded|cAG FED|
~A3 AGE|~G3 cGE|~D3 DFA|1~D3 D3:|2~D3 D2B||
|:c3 cAB|cAG ABc|ded dfe|dAF DFA|
cBc dcB|cAG FGE|~D3 DFA|1~D3 D2B:|2~D3 D2e||
|:fdd gdd|fdd ged|cde ged|B/c/de ged|
fdd gdd|f2a ged|B/c/de ~g3|1ed^c d2e:|2ed^c dcB||
A2D A2G|~F3 FED|FEE EFD|FEE EFG|
~A3 dAG|~F3 GEA|~D3 DFA|~D3 D3|
A2D A2G|~F3 FED|~E3 EFD|~E3 EFG|
~A3 dAG|~F3 GEA|~D3 DFA|~D3 D3|
